X:406
T:Boys of Coomanore, The
R:jig
S:Cathal Hayden and Martin O'Connor
D:Dervish: At the End of the Day
Z:hn-jig-406
M:6/8
L:1/8
K:D
F2E FDD|cde dAG|F2E FDD|EFG EAG|
F2E FDD|cde dAG|AGF EAG|FDD D3:|
|:ABc d3|efd edc|ABc dcd|eag edB|
ABc d2e|fed edc|AGF EAG|FDD D3:|

